!!!!SEGMENT: Any1005c-Missa_Spes_salutis-Credo--s_Hertogenbosch_157.krn
!!!id: Any1005d
!!!OTL: Credo
!!!AGN: Mass; Credo
!!!voices: 2-4
!!!COM: Anonymous
!!!OPR: Missa Spes salutis ('s-Hertogenbosch 157)
**kern	**kern	**kern	**kern
*part4	*part3	*part2	*part1
*staff4	*staff3	*staff2	*staff1
*I"Bassus	*I"Tenor	*I"Altus	*I"Superius
*I'B	*I'T	*I'A	*I'S
*clefF4	*clefGv2	*clefG2	*clefG2
*k[]	*k[]	*k[]	*k[]
*C:	*C:	*C:	*C:
*M2/1	*M2/1	*M2/1	*M2/1
*met(C|)	*met(C|)	*met(C|)	*met(C|)
!!section: Patrem
!!!OMD: Patrem
=1	=1	=1	=1
0r	0r	0r	0ee
=2	=2	=2	=2
0r	0r	1r	1ee
.	.	[1a	1ff
=3	=3	=3	=3
0r	0r	1a]	1.ee
.	.	1a	.
.	.	.	4dd
.	.	.	4cc
=4	=4	=4	=4
0r	0r	1b	1dd
.	.	[1a	1ee
=5	=5	=5	=5
0r	1r	2a]	2.cc
.	.	4g	.
.	.	4f	4dd
.	[1e	2g	4ee
.	.	.	4ff
.	.	2cc	[2ee
=6	=6	=6	=6
0r	1e]	2b	2ee]
.	.	1a	4dd
.	.	.	4cc
.	1e	.	1b
.	.	2g#i	.
=7	=7	=7	=7
0A	1f	2.a	[0a
.	.	4g	.
.	[1e	4a	.
.	.	4b	.
.	.	[2cc	.
=8	=8	=8	=8
1A	2e]	4cc]	1a]
.	.	8bL	.
.	.	8aJ	.
.	4d	1a	.
.	4c	.	.
1B	2d	.	1r
.	2d	2g#i	.
=9	=9	=9	=9
1.A	1e	1a	0r
.	2.c	1a	.
4G	.	.	.
4F	4d	.	.
=10	=10	=10	=10
2G	4e	0r	1r
.	4f	.	.
2.c	1e	.	.
.	.	.	[1ee
4B	.	.	.
[2A	4d	.	.
.	4c	.	.
=11	=11	=11	=11
2A]	1B	1r	2ee]
2G#i	.	.	2ee
1A	2A	[1a	2ee
.	2c	.	2ee
=12	=12	=12	=12
1D	2d	2a]	1ff
.	2d	2a	.
2.A	2e	1a	[1ee
.	2e	.	.
4A	.	.	.
=13	=13	=13	=13
2A	2c	1a	2ee]
2A	2c	.	4dd
.	.	.	4cc
4G	2.g	1b	2.dd
4A	.	.	.
4B	.	.	.
4c	4f	.	4ee
=14	=14	=14	=14
2d	2d	1.a	2ff
2c	2e	.	1ee
1A	2c	.	.
.	2f	4g	4cc
.	.	4f	4dd
=15	=15	=15	=15
1r	1e	2g	4ee
.	.	.	4ff
.	.	2g	2.ee
[1A	2A	[1a	.
.	.	.	4dd
.	[2a	.	4cc
.	.	.	4b
=16	=16	=16	=16
2A]	4a]	1a]	2cc
.	4g	.	.
2A	2f	.	1dd
2A	1e	1a	.
2A	.	.	2cc#i
=17	=17	=17	=17
1B	1d	2f	1dd
.	.	2g	.
[1A	[1e	2.c	[1cc
.	.	4B	.
=18	=18	=18	=18
2A]	2e]	2c	2cc]
4G	2e	1d	4b
4F	.	.	4a
2E	2e	.	1g
2E	2e	2c#i	.
=19	=19	=19	=19
1D	1f	2d	1r
.	.	2d	.
[1E	[1e	2.g	[1b
.	.	4f	.
=20	=20	=20	=20
0E]	2e]	2g	2b]
.	4d	1a	2b
.	4c	.	.
.	2B	.	1b
.	2B	2g#i	.
=21	=21	=21	=21
1A	4A	1a	1cc
.	4B	.	.
.	4c	.	.
.	4d	.	.
1r	4e	[1e	2b
.	4f	.	.
.	[2g	.	[2ee
=22	=22	=22	=22
0r	4g]	2e]	2ee]
.	4e	.	.
.	1a	2e	4dd
.	.	.	4cc
.	.	1e	1b
.	2g#i	.	.
=23	=23	=23	=23
1r	2a	1f	1a
.	2d	.	.
[1D	2e	[1e	2g
.	[2g	.	[2b
=24	=24	=24	=24
2D]	4g]	2e]	4b]
.	4f	.	4a
2D	2.e	4d	1a
.	.	4c	.
2D	.	2B	.
.	4d	.	.
2D	2B	2B	2g#i
=25	=25	=25	=25
2.A	2c	2A	[0a
.	2.e	1c	.
4G	.	.	.
2F	.	.	.
.	4d	.	.
2D	[2d	2d	.
=26	=26	=26	=26
1A	2d]	1e	0a]
.	2c#i	.	.
1r	2d	2r	.
.	4cny	[2d	.
.	4B	.	.
=27	=27	=27	=27
1.D	0A	2d]	1r
.	.	2d	.
.	.	2f	2r
2D	.	2f	[2a
=28	=28	=28	=28
2F	2r	2.f	2a]
2F	1A	.	2a
.	.	4g	.
2.F	.	[1a	2cc
.	2A	.	2cc
4G	.	.	.
=29	=29	=29	=29
1.A	2c	2a]	2.cc
.	2c	4g	.
.	.	4f	4dd
.	2.c	4e	[1ee
.	.	4d	.
4G	.	4e	.
4F	4d	4f	.
=30	=30	=30	=30
2E	1e	2g	2ee]
1A	.	2e	2.cc
.	1c	2e	.
.	.	.	4b
2F	.	[2f	[2a
=31	=31	=31	=31
1B-i	2d	2f]	2a]
.	2d	4e	2g
.	.	4d	.
1A	1e	[1c	2.a
.	.	.	4g
=32	=32	=32	=32
2.F	2.f	1c]	4a
.	.	.	4b
.	.	.	1cc
4F	4e	.	.
2F	1d	1r	.
2G	.	.	2b
=33	=33	=33	=33
2A	1c	2.f	1cc
2F	.	.	.
.	.	4f	.
2B-i	1r	2f	2dd
4A	.	2g	4cc
4G	.	.	4b
=34	=34	=34	=34
0F	2.c	1a	1a
.	4c	.	.
.	2c	1a	1r
.	2d	.	.
=35	=35	=35	=35
2.c	1e	1g	2.cc
4c	.	.	4cc
2A	1f	[1a	2cc
[2d	.	.	2dd
=36	=36	=36	=36
2d]	1e	2a]	4ee
.	.	.	4ff
2c	.	2a	4gg
.	.	.	4ee
2d	2d	2a	2ff
2A	2a	2cc	[2ee
=37	=37	=37	=37
2B	2f	1b-X	4ee]
.	.	.	4dd
2G	2g	.	1dd
1A	1e	2a	.
.	.	2a	2cc#i
=38	=38	=38	=38
2D	2d	1f	[0dd
2.d	2.f	.	.
.	.	2r	.
4c	4e	.	.
4B	4d	2f	.
4A	4c	.	.
=39	=39	=39	=39
1G	1d	2.b-i	1dd]
.	.	4b-i	.
1c	2.e	2a	1r
.	.	2g	.
.	8fL	.	.
.	8gJ	.	.
=40	=40	=40	=40
2F	1a	1.f	1cc
2A	.	.	.
2.d	1a	.	2.ff
.	.	2f	.
4d	.	.	4ff
=41	=41	=41	=41
2c	2r	2g	2ee
2B	2d	2g	2dd
2A	2e	2.a	2cc
2F	2f	.	2a
.	.	4g	.
=42	=42	=42	=42
2.B-i	1d	2f	2a
.	.	4e	2g
4B-i	.	4d	.
2A	1e	2c	2a
2G	.	2g	2b
=43	=43	=43	=43
2F	2r	1.a	1cc
2F	2c	.	.
2F	2.f	.	2r
2F	.	2a	2cc
.	4f	.	.
=44	=44	=44	=44
2G	2e	2g	2cc
2G	2d	2g	2b
1A	1c	2.e	2.cc
.	.	4f	4dd
=45	=45	=45	=45
2r	2r	1g	2ee
2c	2e	.	2ee
2.f	2f	2r	4a
.	.	.	4b
.	2a	2cc	4cc
4f	.	.	4dd
=46	=46	=46	=46
2e	2g	2cc	2ee
2d	2f	2b	2.ff
1c	1g	2cc	.
.	.	.	8eeL
.	.	.	8ddJ
.	.	2cc	2ee
=47	=47	=47	=47
1F	[0f	[0a	1.ff
2r	.	.	.
2F	.	.	4ee
.	.	.	4dd
=48	=48	=48	=48
2F	1f]	0a]	2cc
2D	.	.	2dd
2A	2r	.	2.cc
2A	2c	.	.
.	.	.	4b
=49	=49	=49	=49
2A	2c	0r	1a
4G	2A	.	.
4F	.	.	.
2E	2e	.	1g
2E	2e	.	.
=50	=50	=50	=50
2.D	2f	1f	1a
.	4e	.	.
4E	4d	.	.
2F	2c	2f	1r
2G	2B	2d	.
=51	=51	=51	=51
0F	1c	2a	2r
.	.	2a	2cc
.	2r	2a	2cc
.	2c	4g	2a
.	.	4f	.
=52	=52	=52	=52
2r	2c	2.e	2ee
2c	2A	.	2ee
.	.	4f	.
2c	2.e	2g	2ee
2A	.	2a	4dd
.	4f	.	4cc
=53	=53	=53	=53
2e	2g	4g	2.b
.	.	4a	.
2e	2e	4b	.
.	.	4g	4cc
2d	2f	4a	2dd
.	.	4b	.
2c	[2g	2cc	[2ee
=54	=54	=54	=54
1B	4g]	1g	4ee]
.	4f	.	4dd
.	2d	.	1dd
1A	1e	1a	.
.	.	.	2cc#i
=55	=55	=55	=55
1D	1d	2.f	2dd
.	.	.	1ff
.	.	4g	.
1r	1r	[1a	.
.	.	.	4ee
.	.	.	4dd
=56	=56	=56	=56
1A	1e	1a]	1cc
2A	2c	1r	1r
2A	2f	.	.
=57	=57	=57	=57
1B	2f	1r	1r
.	4e	.	.
.	4d	.	.
[1A	[1c	1a	2r
.	.	.	2ee
=58	=58	=58	=58
1A]	1c]	2a	2cc
.	.	2a	2ff
1r	1r	1b	2ff
.	.	.	4ee
.	.	.	4dd
=59	=59	=59	=59
1A	1e	0a	0cc
2A	2c	.	.
2A	2f	.	.
=60	=60	=60	=60
2B	2f	1r	1r
2B	4e	.	.
.	4d	.	.
[1A	[1c	1a	1ee
=61	=61	=61	=61
1A]	1c]	2a	2cc
.	.	2a	2ff
1r	1r	2b	2ff
.	.	2b	4ee
.	.	.	4dd
=62	=62	=62	=62
1.A	1.c	2a	2cc
.	.	2e	2.cc
.	.	2e	.
.	.	.	4b
2F	2c	2f	[2a
=63	=63	=63	=63
1B-i	1d	2f	2a]
.	.	4e	2g
.	.	4d	.
2A	2e	2c	2a
2A	2e	2c	[2cc
=64	=64	=64	=64
2A	2e	2c	4cc]
.	.	.	4b
2F	2f	2c	1a
1B-i	2f	1d	.
.	4e	.	2g
.	4d	.	.
=65	=65	=65	=65
0A	0c	0e	0a
=66	=66	=66	=66
1.F	1.f	2r	1.a
.	.	1c	.
2F	2f	2c	2a
=67	=67	=67	=67
4F	0a	1f	4a
4G	.	.	4b
4A	.	.	4cc
4B	.	.	4dd
2c	.	1e	2ee
2A	.	.	2cc
=68	=68	=68	=68
2B	1g	2d	2dd
2c	.	1c	2ee
1F	2f	.	2a
.	2a	[2f	[2cc
=69	=69	=69	=69
1c	1g	2f]	4cc]
.	.	.	4b
.	.	2e	2g
2r	1f	1f	2a
2F	.	.	[2dd
=70	=70	=70	=70
2G	2r	1e	4dd]
.	.	.	4b
2A	2c	.	2cc
2B-i	2d	1r	2f
2G	2e	.	2g
=71	=71	=71	=71
2F	2f	2r	1a
2F	2d	2f	.
2c	2c	2g	2r
4B	2c	2a	2cc
4A	.	.	.
=72	=72	=72	=72
1G	2g	2b	2dd
.	4f	2g	2ee
.	4e	.	.
1r	1d	2f	2ff
.	.	2f	2dd
=73	=73	=73	=73
2.A	1e	1cc	4cc
.	.	.	4dd
.	.	.	4ee
4A	.	.	4ff
4G	2r	1b	1gg
4A	.	.	.
4B	2d	.	.
4c	.	.	.
=74	=74	=74	=74
2d	2d	2a	2ff
2G	2g	1b-X	2.ee
2B-i	2f	.	.
.	.	.	4dd
2B-i	2d	2g	[2dd
=75	=75	=75	=75
[0A	2e	1a	2dd]
.	2e	.	4cc
.	.	.	4b
.	1e	[1a	[1cc
=76	=76	=76	=76
1A]	2r	2a]	2cc]
.	2A	4g	4b
.	.	4f	4a
1r	2A	2e	2cc
.	2B	2d	[2b
=77	=77	=77	=77
2r	2c	2e	2b]
2D	2A	2f	1a
2D	2B	2f	.
2E	2B	2e	2g#i
=78	=78	=78	=78
2F	2A	2c	1a
2D	1d	2d	.
2E	.	1G	1r
2E	2c#i	.	.
=79	=79	=79	=79
2.D	1.d	1A	2r
.	.	.	2a
4E	.	.	.
2F	.	1r	2a
2G	2d	.	2b
=80	=80	=80	=80
2A	2c	2r	2cc
2D	2d	2d	2a
1G	2.B	2d	2b
.	.	2e	2b
.	4c	.	.
=81	=81	=81	=81
1r	2d	2f	2a
.	2f	2d	1dd
2r	2g	2e	.
2A	[2a	2e	2cc
=82	=82	=82	=82
2A	2a]	2f	2a
2B	4g	2d	2dd
.	4f	.	.
2c	2e	2.e	2cc
2A	2c	.	[2ee
.	.	4f	.
=83	=83	=83	=83
2B-X	1d	2g	2ee]
2B-i	.	4f	1dd
.	.	4g	.
1A	1e	1a	.
.	.	.	2cc#i
=84	=84	=84	=84
[0D	4d	1f	[0dd
.	4c	.	.
.	4d	.	.
.	4e	.	.
.	2f	1r	.
.	[2d	.	.
=85	=85	=85	=85
1D]	4d]	1.d	0dd_
.	4c	.	.
.	4B	.	.
.	4A	.	.
1r	2B	.	.
.	2G	2g	.
=86	=86	=86	=86
1.D	0d	2f	0dd]
.	.	2f	.
.	.	2.d	.
2G	.	.	.
.	.	4e	.
=87	=87	=87	=87
2F	0r	2f	1.a
2F	.	2f	.
2.D	.	4f	.
.	.	4e	.
.	.	4f	2dd
4E	.	4g	.
=88	=88	=88	=88
2F	1.A	2a	2cc
2C	.	2e	2cc
4D	.	1f	2.a
4E	.	.	.
4F	2d	.	.
4G	.	.	4b
=89	=89	=89	=89
1A	2c	2e	2cc
.	2c	4d	1a
.	.	4c	.
1D	2A	1f	.
.	2B	.	2dd
=90	=90	=90	=90
1.A	2.c	1e	2cc
.	.	.	2cc
.	4d	.	.
.	2e	1r	2.a
2d	2f	.	.
.	.	.	4b
=91	=91	=91	=91
2c	2e	1.e	2cc
2c	2e	.	2g
2.A	2.c	.	2a
.	.	2a	[2cc
4B	4d	.	.
=92	=92	=92	=92
2c	2e	2g	4cc]
.	.	.	4b
2d	2f	2f	1a
1B	1d	2f	.
.	.	4e	2g#i
.	.	4d	.
=93	=93	=93	=93
0A	1.e	2c	[0a
.	.	1d	.
.	2e	2c#i	.
=94	=94	=94	=94
2r	4f	0d	1a]
.	4e	.	.
2D	4d	.	.
.	4c	.	.
1G	1B-i	.	1r
=95	=95	=95	=95
2G	2r	1r	0r
2F	2A	.	.
2D	1d	2r	.
2D	.	2d	.
=96	=96	=96	=96
1E	2d	1g	1r
.	2c	.	.
1D	2A	2g	1a
.	2A	2f	.
=97	=97	=97	=97
1r	1B	2d	1dd
.	.	2d	.
2r	1A	1e	2dd
2A	.	.	2cc
=98	=98	=98	=98
2.d	2r	2d	2a
.	1d	2d	2a
4c	.	.	.
2B	.	1g	1b
2G	[2e	.	.
=99	=99	=99	=99
1A	2e]	2g	[0a
.	4d	2f	.
.	4c	.	.
2r	1f	2d	.
2D	.	2d	.
=100	=100	=100	=100
1A	2e	1e	0a_
.	2A	.	.
1D	1d	2d	.
.	.	[2f	.
=101	=101	=101	=101
1A	2d	2f]	0a_
.	2c	1e	.
2r	2A	.	.
2A	2A	4d	.
.	.	4c	.
=102	=102	=102	=102
1d	1f	1d	0a]
2d	1e	2A	.
2c	.	2A	.
=103	=103	=103	=103
2A	2r	2e	0r
2A	2A	1f	.
1B	1d	.	.
.	.	4e	.
.	.	4d	.
=104	=104	=104	=104
1A	2d	2e	1r
.	2c	2e	.
1r	2A	1a	2r
.	2A	.	2a
=105	=105	=105	=105
0r	1B	2a	1dd
.	.	2g	.
.	1A	2e	2dd
.	.	2e	2cc
=106	=106	=106	=106
1r	1d	1f	2a
.	.	.	2a
2r	4G	1g	1b
.	4A	.	.
2d	4B	.	.
.	4c	.	.
=107	=107	=107	=107
2d	2d	1r	0a
2A	1e	.	.
2c	.	2r	.
2d	[2d	2a	.
=108	=108	=108	=108
1A	2d]	2a	0r
.	2c	2e	.
2G	1d	2g	.
2F	.	2a	.
=109	=109	=109	=109
2A	2c	2e	2r
2.D	2d	2f	2dd
.	1A	2f	2dd
4E	.	.	.
4F	.	2f	2a
4G	.	.	.
=110	=110	=110	=110
2A	2r	2e	2cc
2.D	2d	2d	2dd
.	2d	1f	[1a
4E	.	.	.
4F	2A	.	.
4G	.	.	.
=111	=111	=111	=111
2A	2c	2r	2a]
2D	2d	2d	2a
1D	1A	2d	2f
.	.	2A	[2a
=112	=112	=112	=112
2r	0a	2c	2a]
1d	.	2d	4g
.	.	.	4f
.	.	1A	1e
2c	.	.	.
=113	=113	=113	=113
2d	2r	2r	4f
.	.	.	4e
1d	4d	2f	4f
.	4e	.	4g
.	4f	2f	4a
.	4g	.	4b
2A	2a	[2e	4cc
.	.	.	4dd
=114	=114	=114	=114
2c	2g	2e]	2ee
2d	2f	2.a	1dd
1A	1e	.	.
.	.	4g	.
.	.	2a	2cc#i
=115	=115	=115	=115
00D	00d	00d	00dd
=116||	=116||	=116||	=116||
*M2/1	*M2/1	*M2/1	*M2/1
*met(C|)	*met(C|)	*met(C|)	*met(C|)
!!section: Et incarnatus est
!!!OMD: Et incarnatus est
1A	1c	1e	1a
1A	1c	1e	1a
=117	=117	=117	=117
1A	1c	2e	1a
.	.	1f	.
2B	2d	.	2f
2B	2d	4e	2g
.	.	4d	.
=118	=118	=118	=118
1A	1e	1c	1a
1r	1r	1r	1r
=119	=119	=119	=119
1A	1e	1a	1cc
2c	2e	2g	2cc
2c	2e	2g	2cc
=120	=120	=120	=120
1c	1e	1g	1cc
1F	1f	1a	1cc
=121	=121	=121	=121
1c	1e	1g	1cc
1r	1r	1r	1r
=122	=122	=122	=122
1c	1g	1cc	1ee
1c	1g	1cc	1ee
=123	=123	=123	=123
2A	2a	2cc	2ee
2A	2a	2cc	2ee
2d	2f	2a	2ff
2d	2f	2b	2ff
=124	=124	=124	=124
1c	4g	1cc	1ee
.	4f	.	.
.	4e	.	.
.	4d	.	.
1r	1e	1r	1r
=125	=125	=125	=125
1A	2r	1a	1cc
.	2e	.	.
1A	1e	1a	1cc
=126	=126	=126	=126
1A	1e	1a	1cc
2G	2g	2b	2dd
2G	2g	2b	2dd
=127	=127	=127	=127
1A	1e	1a	1cc
2r	1f	2r	2r
2d	.	2a	2dd
=128	=128	=128	=128
1d	1f	1a	1dd
1d	1f	1a	2dd
.	.	.	2ff
=129	=129	=129	=129
1G	1g	2b	2ee
.	.	2b	2.dd
1A	1e	[1a	.
.	.	.	4cc#i
.	.	.	2cc#i
=130	=130	=130	=130
0D;	0d;	0a;]	0dd;
=131	=131	=131	=131
1.A	1r	0r	0r
.	[1e	.	.
2A	.	.	.
=132	=132	=132	=132
2G	2e]	0r	0r
2G	2e	.	.
2.F	2d	.	.
.	2d	.	.
4G	.	.	.
=133	=133	=133	=133
2A	2.c	0r	0r
2F	.	.	.
.	4d	.	.
2G	2e	.	.
2A	2c	.	.
=134	=134	=134	=134
2D	2d	1.a	1r
2.A	2e	.	.
.	4A	.	[1ee
4G	4B	.	.
4A	4c	2a	.
4B	4d	.	.
=135	=135	=135	=135
1c	1e	2g	2ee]
.	.	2g	2ee
1d	2r	2.f	2dd
.	2d	.	2dd
.	.	4g	.
=136	=136	=136	=136
1A	2e	2a	2.cc
.	2f	2a	.
.	.	.	4dd
2r	2g	2g	2ee
2A	2e	2a	2cc
=137	=137	=137	=137
2B	2d	1g	2dd
2c	2g	.	2ee
2d	2f	2r	2a
2B	2g	2d	2b
=138	=138	=138	=138
1A	1a	2e	2cc
.	.	2f	4r
.	.	.	4a
2G	2r	2g	2b
2A	2a	[2e	2cc
=139	=139	=139	=139
2D	2a	4e]	2dd
.	.	4d	.
2G	4g	1d	2b
.	4f	.	.
1A	1e	.	1a
.	.	2c#i	.
=140	=140	=140	=140
2D	1f	2d	2r
2.d	.	2.f	2a
.	1r	.	2b
4c	.	4e	.
4B	.	[2a	2cc
4A	.	.	.
=141	=141	=141	=141
1B	1d	2a]	2dd
.	.	2g	2dd
1A	2e	1a	2.cc
.	2f	.	.
.	.	.	8b
.	.	.	8a
=142	=142	=142	=142
1r	4g	0r	4b
.	4f	.	4cc
.	4e	.	1dd
.	4d	.	.
1A	1e	.	.
.	.	.	2cc#i
=143	=143	=143	=143
2B	1d	1r	0dd
2c	.	.	.
2d	1r	2r	.
2d	.	2d	.
=144	=144	=144	=144
2c	1A	2e	0r
4B	.	2f	.
4A	.	.	.
2G	2B	2g	.
2A	2c	2e	.
=145	=145	=145	=145
2D	2d	1f	0r
4r	2d	.	.
4D	.	.	.
2E	2c	2e	.
2F	4B	2d	.
.	4A	.	.
=146	=146	=146	=146
4G	4B	2e	0r
4F	4c	.	.
4E	1d	2f	.
4D	.	.	.
1E	.	2g	.
.	2c#i	2g	.
=147	=147	=147	=147
1D	2.d	2.f	2r
.	.	.	2a
.	4c	4e	.
1r	2B	2d	2b
.	2A	[2a	2cc
=148	=148	=148	=148
1r	1B	2a]	1dd
.	.	2g#i	.
2r	1A	1a	1cc
2A	.	.	.
=149	=149	=149	=149
2B	2r	1r	2dd
2c	2e	.	2ee
2d	2f	2r	2.a
2d	[2a	2d	.
.	.	.	4b
=150	=150	=150	=150
2c	4a]	2.e	4cc
.	4f	.	4dd
4B	4g	.	2.ee
4A	4a	4f	.
1B	4g	2g	.
.	4f	.	4dd
.	4e	2g	[2dd
.	4d	.	.
=151	=151	=151	=151
1A	1e	1a	2dd]
.	.	.	2cc#i
2r	1f	[1a	1dd
2d	.	.	.
=152	=152	=152	=152
2c	2.e	0a]	[0ee
1A	.	.	.
.	4d	.	.
.	2c	.	.
4G	[2d	.	.
4F	.	.	.
=153	=153	=153	=153
1E	2d]	1g	1ee]
.	2c#i	.	.
[1D	[1d	1f	[1ff
=154	=154	=154	=154
1D]	1d]	[0a	1ff]
[1A	2.e	.	[1ee
.	4d	.	.
=155	=155	=155	=155
1A]	2c	1a]	2ee]
.	2c	.	4dd
.	.	.	4cc
1G	2.g	1b	1dd
.	4f	.	.
=156	=156	=156	=156
1c	4e	1g	1ee
.	4f	.	.
.	4g	.	.
.	4e	.	.
4F	1f	1a	2.cc
4G	.	.	.
4A	.	.	.
4B	.	.	4dd
=157	=157	=157	=157
1c	[0e	2.g	4ee
.	.	.	4ff
.	.	.	2.ee
.	.	4f	.
2c	.	2g	.
.	.	.	4dd
[2A	.	[2a	4cc
.	.	.	4b
=158	=158	=158	=158
2A]	0e]	2a]	2cc
2G	.	2b	1dd
1A	.	1a	.
.	.	.	2cc#i
=159	=159	=159	=159
00D	00d	00f 00a>	00dd
=160||	=160||	=160||	=160||
*M2/1	*M2/1	*M2/1	*M2/1
*met(C|)	*met(C|)	*met(C|)	*met(C|)
!!section: Et resurrexit
!!!OMD: Et resurrexit
0r	0r	0r	1ee
.	.	.	2ee
.	.	.	2ee
=161	=161	=161	=161
0r	0r	1a	2ff
.	.	.	1ee
.	.	2a	.
.	.	2a	4dd
.	.	.	4cc
=162	=162	=162	=162
0r	0r	2b-i	2dd
.	.	1a	2ee
.	.	.	4a
.	.	.	4b
.	.	4g	4cc
.	.	4f	4dd
=163	=163	=163	=163
0r	0r	2g	2ee
.	.	2a	2ee
.	.	4d	1ff
.	.	4e	.
.	.	4f	.
.	.	4g	.
=164	=164	=164	=164
0r	0r	2a	1ee
.	.	2a	.
.	.	1b	2r
.	.	.	2dd
=165	=165	=165	=165
0r	0r	2a	1ff
.	.	2d	.
.	.	2e	2ee
.	.	[2f	2cc
=166	=166	=166	=166
0r	0r	2f]	1dd
.	.	4e	.
.	.	4d	.
.	.	2e	2.cc
.	.	2c	.
.	.	.	8bL
.	.	.	8aJ
=167	=167	=167	=167
0r	0r	4d	2b
.	.	4c	.
.	.	4B	1a
.	.	4A	.
.	.	1B	.
.	.	.	2g#i
=168	=168	=168	=168
0r	0r	2A	1a
.	.	2d	.
.	.	1f	2r
.	.	.	2a
=169	=169	=169	=169
0r	0r	2e	1cc
.	.	2c	.
.	.	2d	2b
.	.	2e	2g
=170	=170	=170	=170
0r	0r	2c	4a
.	.	.	4g
.	.	4f	4a
.	.	4g	4b
.	.	4a	4cc
.	.	4f	4dd
.	.	4g	[2ee
.	.	4a	.
=171	=171	=171	=171
0r	0r	4g	4ee]
.	.	4f	4dd
.	.	4e	1dd
.	.	4d	.
.	.	1e	.
.	.	.	2cc#i
=172	=172	=172	=172
0r	0r	2r	1dd
.	.	2d	.
.	.	2d	2d
.	.	2f	2d
=173	=173	=173	=173
0r	0r	4d	2f
.	.	4e	.
.	.	4f	4d
.	.	4g	4e
.	.	4a	4f
.	.	4b	4g
.	.	[2cc	4a
.	.	.	4b
=174	=174	=174	=174
0r	0r	4cc]	2.cc
.	.	4b	.
.	.	4a	.
.	.	4g	4b
.	.	1a	4cc
.	.	.	4dd
.	.	.	[2ee
=175	=175	=175	=175
0r	0r	2g	2ee]
.	.	2f	2.dd
.	.	1e	.
.	.	.	8cc#iL
.	.	.	8bJ
.	.	.	2cc#i
=176	=176	=176	=176
0r	0r	2r	1dd
.	.	2d	.
.	.	2d	2r
.	.	2c	2a
=177	=177	=177	=177
0r	0r	2d	2a
.	.	2e	2g
.	.	2f	2a
.	.	[2e	2b
=178	=178	=178	=178
0r	0r	2e]	2cc
.	.	4d	2cc
.	.	4c	.
.	.	2d	1b
.	.	2e	.
=179	=179	=179	=179
0r	0r	4A	1cc
.	.	4B	.
.	.	4c	.
.	.	4d	.
.	.	4e	2b
.	.	4f	.
.	.	4g	2ee
.	.	4e	.
=180	=180	=180	=180
0r	0r	4f	2dd
.	.	4g	.
.	.	1a	2cc
.	.	.	2b
.	.	2g	2b
=181	=181	=181	=181
0r	0r	2.f	2.a
.	.	8eL	4b
.	.	8dJ	.
.	.	2e	4cc
.	.	.	4dd
.	.	2c	[2ee
=182	=182	=182	=182
0r	0r	2f	2ee]
.	.	2g	1dd
.	.	1e	.
.	.	.	2cc#i
=183	=183	=183	=183
00r	00r	00d	00dd
=184||	=184||	=184||	=184||
*M2/1	*M2/1	*M2/1	*M2/1
*met(C|)	*met(C|)	*met(C|)	*met(C|)
!!section: Et iterum
!!!OMD: Et iterum
0r	1e	0r	0r
.	1e	.	.
=185	=185	=185	=185
1r	1d	0r	0r
1A	2.c	.	.
.	4d	.	.
=186	=186	=186	=186
1A	2e	0r	0r
.	2c	.	.
1G	2d	.	.
.	2e	.	.
=187	=187	=187	=187
2.F	2A	0r	0r
.	1c	.	.
4G	.	.	.
2A	.	.	.
2F	2d	.	.
=188	=188	=188	=188
2G	1e	0r	0r
2A	.	.	.
2D	1f	.	.
2F	.	.	.
=189	=189	=189	=189
2G	1e	0r	0r
2A	.	.	.
2B	2d	.	.
[2A	2c	.	.
=190	=190	=190	=190
2A]	1B	0r	0r
2G#i	.	.	.
2A	2r	.	.
2A	4A	.	.
.	4B	.	.
=191	=191	=191	=191
1A	4c	0r	0r
.	4d	.	.
.	2e	.	.
1G	4e	.	.
.	4c	.	.
.	4d	.	.
.	4e	.	.
=192	=192	=192	=192
2.F	2f	0r	0r
.	4e	.	.
4G	4d	.	.
2A	2c	.	.
2F	2d	.	.
=193	=193	=193	=193
4G	2e	0r	0r
4F	.	.	.
4E	1d	.	.
4D	.	.	.
1E	.	.	.
.	2c#i	.	.
=194	=194	=194	=194
1D	0d	0r	0r
2r	.	.	.
2G	.	.	.
=195	=195	=195	=195
2B	2r	0r	0r
2B	2d	.	.
1A	2f	.	.
.	2f	.	.
=196	=196	=196	=196
2r	1e	0r	0r
2G	.	.	.
2B	2r	.	.
2B	2d	.	.
=197	=197	=197	=197
2A	2f	0r	0r
2F	2f	.	.
2G	2e	.	.
2A	2c	.	.
=198	=198	=198	=198
2D	2d	0r	0r
2A	2e	.	.
2A	2A	.	.
4G	2e	.	.
4F	.	.	.
=199	=199	=199	=199
2G	2e	0r	0r
2A	2f	.	.
2B	2f	.	.
2B	4e	.	.
.	4d	.	.
=200	=200	=200	=200
4A	2c	0r	0r
4G	.	.	.
4A	2f	.	.
4B	.	.	.
2c	2e	.	.
[2d	2d	.	.
=201	=201	=201	=201
2d]	2e	0r	0r
2c#i	2e	.	.
[1d	1d	.	.
=202	=202	=202	=202
1d]	2r	0r	0r
.	2d	.	.
2r	2.f	.	.
2D	.	.	.
.	4g	.	.
=203	=203	=203	=203
2.F	2a	0r	0r
.	2A	.	.
4G	.	.	.
1A	2.c	.	.
.	4d	.	.
=204	=204	=204	=204
2r	[0e	0r	0r
1A	.	.	.
4G	.	.	.
4F	.	.	.
=205	=205	=205	=205
2G	1e]	0r	0r
2A	.	.	.
2.D	2r	.	.
.	[2A	.	.
4E	.	.	.
=206	=206	=206	=206
4F	4A]	0r	0r
4G	4B	.	.
4A	4c	.	.
4F	4d	.	.
4G	4e	.	.
4A	4c	.	.
[2B-i	4d	.	.
.	4e	.	.
=207	=207	=207	=207
2B-]	1f	0r	0r
2.A	.	.	.
.	2.e	.	.
4B	.	.	.
4c	.	.	.
4A	4f	.	.
=208	=208	=208	=208
4B	4g	0r	0r
4c	4e	.	.
1d	4f	.	.
.	4g	.	.
.	[1a	.	.
2c#i	.	.	.
=209	=209	=209	=209
2d	1a]	0r	0r
4D	.	.	.
4E	.	.	.
4F	4A	.	.
4G	4B	.	.
4A	4c	.	.
4B	4d	.	.
=210	=210	=210	=210
4c	4e	0r	0r
4A	4f	.	.
4B	4g	.	.
4c	4e	.	.
2F	2f	.	.
2G	[2e	.	.
=211	=211	=211	=211
2A	2e]	0r	0r
2F	1d	.	.
1E	.	.	.
.	2c#i	.	.
=212	=212	=212	=212
00D	00d	00r	00r
=213||	=213||	=213||	=213||
*M2/1	*M2/1	*M2/1	*M2/1
*met(C|)	*met(C|)	*met(C|)	*met(C|)
!!section: Et in spiritum
!!!OMD: Et in spiritum
1.A	1r	0r	0r
.	[1e	.	.
2A	.	.	.
=214	=214	=214	=214
2G	2e]	0r	0r
2G	2e	.	.
2.F	2d	.	.
.	2d	.	.
4G	.	.	.
=215	=215	=215	=215
2A	2.c	0r	0r
2F	.	.	.
.	4d	.	.
2G	2e	.	.
2A	2c	.	.
=216	=216	=216	=216
2D	2d	1.a	1r
2.A	2e	.	.
.	4c	.	[1ee
4G	4B	.	.
4A	4c	2a	.
4B	4d	.	.
=217	=217	=217	=217
2c	1e	2g	2ee]
2c	.	2g	2ee
1d	1r	2.f	2dd
.	.	.	2dd
.	.	4g	.
=218	=218	=218	=218
1A	1c	2a	2.cc
.	.	2f	.
.	.	.	4dd
2r	2c	2g	2ee
2A	[2f	2a	2cc
=219	=219	=219	=219
2B	2f]	2d	2dd
2c	2e	1a	2ee
2d	2f	.	2a
2B	2d	2g#i	[2dd
=220	=220	=220	=220
1.A	2f	0a	2dd]
.	2.e	.	4cc
.	.	.	4b
.	.	.	2cc
.	4d	.	.
4G	[2d	.	4b
4F	.	.	4a
=221	=221	=221	=221
1E	2d]	1r	1g
.	2c#i	.	.
[1D	2d	2r	[1f
.	2d	2f	.
=222	=222	=222	=222
1D]	4d	4f	2f]
.	4e	4g	.
.	4f	4a	2f
.	4g	4b	.
2r	[1a	2.cc	4f
.	.	.	4g
2F	.	.	4a
.	.	4b	4b
=223	=223	=223	=223
4F	2a]	1a	4cc
4G	.	.	4b
4A	4g	.	4cc
4B	4f	.	4dd
2c	2e	2g	2ee
2A	2a	2c	[2ff
=224	=224	=224	=224
2B	2g	2d	2ff]
2c	2g	2.c	2ee
2F	2f	.	2ff
.	.	4d	.
2c	2g	2e	[2ee
=225	=225	=225	=225
1B-X	1d	2f	2ee]
.	.	2g	2.dd
1A	1e	1a	.
.	.	.	8cc#iL
.	.	.	8bJ
.	.	.	2cc#i
=226	=226	=226	=226
1D	1.d	1f	1dd
2r	.	2r	2a
2A	2A	2e	[2cc
=227	=227	=227	=227
1A	1c	2e	4cc]
.	.	.	4b
.	.	1f	1a
1B	1d	.	.
.	.	4e	2g#i
.	.	4d	.
=228	=228	=228	=228
2.A	2.c	1.e	[0a
4B	4d	.	.
2c	2e	.	.
2d	2f	2d	.
=229	=229	=229	=229
2d	2d	2f	0a]
2c	2e	2e	.
2d	[1f	2d	.
2d	.	2a	.
=230	=230	=230	=230
1B	2f]	2a	2r
.	4e	2g	2dd
.	4d	.	.
2A	2e	2a	2dd
2A	2a	2a	2cc
=231	=231	=231	=231
2B	2a	2f	2dd
2B	2g	4e	2dd
.	.	4d	.
2A	2a	1e	2cc
2A	2a	.	[2a
=232	=232	=232	=232
1d	2f	2d	4a]
.	.	.	4g
.	4e	2f	4a
.	4d	.	4b
1c	4e	2g	1cc
.	4f	.	.
.	4g	2g	.
.	4e	.	.
=233	=233	=233	=233
2r	1f	1.a	2a
2F	.	.	1cc
2F	1r	.	.
2G	.	4g	2b
.	.	4f	.
=234	=234	=234	=234
4A	1r	2.e	1cc
4B	.	.	.
4c	.	.	.
4A	.	4c	.
2B	2r	2d	2r
[2A	2c	2e	2cc
=235	=235	=235	=235
2A]	2c	2A	2ee
4G	2d	1d	2ff
4F	.	.	.
1E	4e	.	1gg
.	4f	.	.
.	4g	2c#i	.
.	4e	.	.
=236	=236	=236	=236
0D	2f	2d	1.ff
.	1d	2f	.
.	.	2f	.
.	4c	2g	4ee
.	4B	.	4dd
=237	=237	=237	=237
0r	1A	4a	1cc
.	.	4b	.
.	.	4cc	.
.	.	4a	.
.	2G	2b	2r
.	[2A	[2a	2cc
=238	=238	=238	=238
0r	2A]	2a]	2cc
.	2B	4g	2dd
.	.	4f	.
.	1c	1e	4ee
.	.	.	4ff
.	.	.	4gg
.	.	.	4ee
=239	=239	=239	=239
2.A	4A	0a	2ff
.	4B	.	.
.	4c	.	1ee
4A	4d	.	.
2A	4e	.	.
.	4c	.	.
2A	[2f	.	4dd
.	.	.	4cc
=240	=240	=240	=240
1G	2f]	1r	1b
.	2e	.	.
2F	1f	2.a	4a
.	.	.	4g
2D	.	.	4a
.	.	4a	4b
=241	=241	=241	=241
2A	2.e	2a	1cc
2A	.	2a	.
.	4e	.	.
2E	2e	1g	1r
2C	2e	.	.
=242	=242	=242	=242
4D	1d	1f	1r
4E	.	.	.
4F	.	.	.
4G	.	.	.
4A	2c	2.e	2.ee
4B	.	.	.
[2c	[2e	.	.
.	.	4f	4ee
=243	=243	=243	=243
2c]	2e]	2g	2ee
4B	4d	1a	2ee
4A	4c	.	.
1B	1d	.	1dd
.	.	2g#i	.
=244	=244	=244	=244
1A	2e	2a	2cc
.	2c	2e	2a
1E	1B	2e	2a
.	.	2e	2g
=245	=245	=245	=245
2r	2A	2e	2cc
2A	2e	2a	2cc
2A	2f	1b	1dd
2G	2g	.	.
=246	=246	=246	=246
2A	2e	2a	2cc
2c	4d	2e	1a
.	4c	.	.
1B-X	1d	2f	.
.	.	4e	2g
.	.	4d	.
=247	=247	=247	=247
0A	2e	2c	[0a
.	1d	2d	.
.	.	2e	.
.	2c#i	2e	.
=248	=248	=248	=248
2D	2d	2f	1a]
1d	1f	1a	.
.	.	.	[1dd
2d	2f	2a	.
=249	=249	=249	=249
1d	1f	1a	2dd]
.	.	.	2dd
1G	1g	1b	2dd
.	.	.	2dd
=250	=250	=250	=250
1A	2e	1a	1cc
.	2f	.	.
1A	2e	1a	1cc
.	[2f	.	.
=251	=251	=251	=251
2F	4f]	2a	1dd
.	4e	.	.
2G	1d	1g	.
1E	.	.	1ee
.	2c#i	4f	.
.	.	4e	.
=252	=252	=252	=252
1D	0d	[0f	[0a
2r	.	.	.
[2D	.	.	.
=253	=253	=253	=253
2D]	2r	0f]	0a]
2D	1A	.	.
2.F	.	.	.
.	2A	.	.
4G	.	.	.
=254	=254	=254	=254
1A	2.c	0r	0r
.	4d	.	.
2r	[1e	.	.
[2A	.	.	.
=255	=255	=255	=255
2A]	1e]	0r	1r
4G	.	.	.
4F	.	.	.
2G	1e	.	2r
2A	.	.	[2a
=256	=256	=256	=256
4D	1f	0r	2a]
4E	.	.	.
4F	.	.	2a
4G	.	.	.
2A	2e	.	2cc
2F	[2d	.	2dd
=257	=257	=257	=257
1E	2d]	1r	1ee
.	2c#i	.	.
[1D	2d	2r	1r
.	[2f	[2d	.
=258	=258	=258	=258
1D]	4f]	2d]	2r
.	4e	.	.
.	4d	2d	1a
.	4c	.	.
1r	1d	2.f	.
.	.	.	2a
.	.	4g	.
=259	=259	=259	=259
1.A	0c	1a	2.cc
.	.	.	4dd
.	.	2r	[1ee
2A	.	[2a	.
=260	=260	=260	=260
1c	1r	2a]	1ee]
.	.	4g	.
.	.	4f	.
1c	1e	2g	1ee
.	.	2a	.
=261	=261	=261	=261
2d	4d	4f	1ff
.	4e	4g	.
2d	4f	4a	.
.	4g	4b	.
2A	2a	2cc	2ee
2B	2f	[2b	[2dd
=262	=262	=262	=262
2G	1e	2b]	2dd]
2A	.	2.a	2cc#i
[1D	2d	.	[1dd
.	.	4g	.
.	2d	4f	.
.	.	4e	.
=263	=263	=263	=263
1D]	2d	2f	0dd]
.	2d	2d	.
2r	2.f	2d	.
2D	.	2d	.
.	4g	.	.
=264	=264	=264	=264
2D	1a	2.f	2r
2D	.	.	2a
.	.	4g	.
2F	2r	[1a	2a
4F	2A	.	2a
4G	.	.	.
=265	=265	=265	=265
1A	2A	1a]	2.cc
.	2A	.	.
.	.	.	4dd
2A	2.c	2.e	2ee
[2c	.	.	[2ee
.	4d	4f	.
=266	=266	=266	=266
2c]	1e	1g	2ee]
4B	.	.	4dd
4A	.	.	4cc
2B	2r	1g	2dd
2c	2e	.	2ee
=267	=267	=267	=267
4F	1a	1f	4cc
4G	.	.	4b
4A	.	.	4cc
4B	.	.	4dd
2c	2g	2e	2ee
2d	2f	2d	[2ff
=268	=268	=268	=268
1B-X	1d	2f	4ff]
.	.	.	4ee
.	.	2g	1dd
1A	1e	1a	.
.	.	.	4cc
.	.	.	4b
=269	=269	=269	=269
*M3/1	*M3/1	*M3/1	*M3/1
*met(3)	*met(3)	*met(3)	*met(3)
0A	0e	0a	0cc
1r	1r	1r	1r
=270	=270	=270	=270
1A	1e	1a	1cc
1A	1e	1a	1cc
1G	1g	1b	1dd
=271	=271	=271	=271
0c	0g	0cc	0ee
1r	1r	1r	1r
=272	=272	=272	=272
2F	0a	0cc	0ff
2G	.	.	.
2A	.	.	.
2B	.	.	.
1c	1g	1cc	1ee
=273	=273	=273	=273
1d	1f	1a	1dd
1G	1.g	0b	1.ee
[1B	.	.	.
.	2f	.	2dd
=274	=274	=274	=274
1B]	1d	1g	1.dd
1A	0e	0a	.
.	.	.	4cc#i
.	.	.	4b
1A	.	.	1cc#i
=275	=275	=275	=275
*M2/1	*M2/1	*M2/1	*M2/1
*met(C|)	*met(C|)	*met(C|)	*met(C|)
1D	1d	1f	1dd
2.G	2r	1g	2r
.	[2g	.	[2dd
4A	.	.	.
=276	=276	=276	=276
2B	2g]	1r	2dd]
2c	2e	.	2ee
2A	2e	2r	2cc
2G	2g	[2g	2dd
=277	=277	=277	=277
2c	2e	2g]	1ee
2A	4d	2a	.
.	4c	.	.
1B	1d	2f	2dd
.	.	2g	2dd
=278	=278	=278	=278
2A	2r	1a	2cc
2D	1d	.	2a
1G	.	1g	1b
.	2e	.	.
=279	=279	=279	=279
2r	2c	2e	2r
1G	2d	1g	1b
.	1e	.	.
2A	.	4f	2cc
.	.	4e	.
=280	=280	=280	=280
2F	2d	1f	2a
2G	2d	.	2b
1A	2d	1e	1a
.	2c#i	.	.
=281	=281	=281	=281
2D	4d	2r	2f
.	4c	.	.
2F	4B	2a	2d
.	4A	.	.
2E	1B	2a	2e
2E	.	2g	2e
=282	=282	=282	=282
1A	2c	2a	2e
.	2A	2a	2ee
1r	2c	2g	2ee
.	2d	2f	2dd
=283	=283	=283	=283
1r	1A	2.e	2ee
.	.	.	2ee
.	.	4f	.
2r	1r	2g	2dd
2A	.	2a	2cc
=284	=284	=284	=284
2A	1r	0e	1b
2G#i	.	.	.
2A	2r	.	1a
2A	2e	.	.
=285	=285	=285	=285
2G	2e	2r	0r
2F	2d	1a	.
1E	2e	.	.
.	2e	2g	.
=286	=286	=286	=286
0r	2d	2a	2r
.	2c	2a	2.ee
.	1B	2g	.
.	.	.	4ee
.	.	2f	2dd
=287	=287	=287	=287
2r	1c	1e	2ee
2C	.	.	2ee
2G	2B	2r	2dd
2A	2A	[2a	2cc
=288	=288	=288	=288
1E	1B	4a]	2b
.	.	4a	.
.	.	2g	2b
1A	2.A	2a	[1cc
.	.	2a	.
.	4B	.	.
=289	=289	=289	=289
2r	2c	2g	2cc]
2.d	2d	2f	2a
.	1A	2e	1a
4d	.	.	.
2c	.	2e	.
=290	=290	=290	=290
2d	2r	2f	2.a
2d	2.a	2f	.
.	.	.	4b
2c	.	2e	2cc
.	4a	.	.
2B	2g	2d	2dd
=291	=291	=291	=291
1A	2a	2e	2cc
.	2a	1c	2.ee
2r	2g	.	.
.	.	.	4ee
[2d	2f	2d	2dd
=292	=292	=292	=292
4d]	2e	1A	2ee
4d	.	.	.
2c	2e	.	2ee
2d	2f	2d	2a
2d	2f	2f	2dd
=293	=293	=293	=293
2c	4g	2e	2ee
.	4f	.	.
2B	4e	2g	1dd
.	4d	.	.
2A	1e	1a	.
2A	.	.	2cc#i
=294	=294	=294	=294
0D	2d	1f	2dd
.	1a	.	1ff
.	.	1r	.
.	4g	.	4ee
.	4f	.	4dd
=295	=295	=295	=295
0A	1e	1a	1cc
.	2e	[1a	1cc
.	[2f	.	.
=296	=296	=296	=296
0B	4f]	2a]	0dd
.	4e	.	.
.	4d	4g#i	.
.	4c	4f#i	.
.	1d	1g#i	.
=297	=297	=297	=297
0A	1.e	1a	1cc
.	.	1a	1ee
.	4d	.	.
.	4c	.	.
=298	=298	=298	=298
0D	4d	2f	0ff
.	4e	.	.
.	4f	4d	.
.	4g	4e	.
.	2a	4f	.
.	.	4g	.
.	2d	4a	.
.	.	4b	.
=299	=299	=299	=299
1A	2e	2cc	1ee
.	2c	1a	.
1B	1d	.	1dd
.	.	2g#i	.
=300	=300	=300	=300
2A	2e	[0a	2cc
2d	4d	.	1ff
.	4e	.	.
2d	4f	.	.
.	4g	.	.
2A	[2a	.	[2ee
=301	=301	=301	=301
2c	4a]	0a]	2ee]
.	4g	.	.
2d	2f	.	2.dd
1A	1e	.	.
.	.	.	8ccL
.	.	.	8bJ
.	.	.	2cc
=302	=302	=302	=302
1D	2r	1.a	4f
.	.	.	4e
.	2d	.	4f
.	.	.	4g
1r	2d	.	4a
.	.	.	4b
.	2A	2a	4cc
.	.	.	4dd
=303	=303	=303	=303
0r	2c	2g	2ee
.	2d	2f	1dd
.	1A	1e	.
.	.	.	2cc
=304	=304	=304	=304
1.d	1.a	4d	2.ff
.	.	4e	.
.	.	4f	.
.	.	4g	4ee
.	.	4a	2dd
.	.	4b	.
2A	2a	[2cc	[2ee
=305	=305	=305	=305
2c	2g	4cc]	2ee]
.	.	4b	.
2d	2f	4a	1dd
.	.	4g	.
1A	1e	1a	.
.	.	.	2cc
=306	=306	=306	=306
2D	2d	4f	2.ff
.	.	4e	.
1d	1a	4f	.
.	.	4g	4ee
.	.	4a	2dd
.	.	4b	.
2A	2a	[2cc	[2ee
=307	=307	=307	=307
2c	2g	4cc]	2ee]
.	.	4b	.
2d	2f	4a	1dd
.	.	4g	.
1A	1e	1a	.
.	.	.	2cc#i
=308	=308	=308	=308
00Dl	00dl	00al	00ddl
==	==	==	==
*-	*-	*-	*-
!!!system-decoration: [*]
!!!RDF**kern: i = editorial accidental
!!!RDF**kern: l = terminal long
!!!ENC: Lance Morrison
!!!END: 2025/11/11
!!!EED: Benjamin Ory
!!!EEV: 2025/11/11
!!!YEC: Copyright 2025 Benjamin Ory, All Rights Reserved
!!!ONB: Translated from MusicXML on 2025/11/11
!!!verovio: header encoded
!!!header-left: Edited by @{ENC} (2025)\n
!!!header-right:
!!!header-center: